Newaita-dark/apps/48/datovka.svg

<svg height="48" viewBox="0 0 48 48" width="48" xmlns="http://www.w3.org/2000/svg" xmlns:xlink="http://www.w3.org/1999/xlink"><linearGradient id="a" gradientUnits="userSpaceOnUse" x1="23.81478" x2="23.81478" y1="42.0509045" y2="44.03547050005"><stop offset="0" stop-opacity=".27451"/><stop offset="1" stop-opacity="0"/></linearGradient><linearGradient id="b"><stop offset="0" stop-opacity=".313726"/><stop offset=".222222" stop-opacity=".27451"/><stop offset="1" stop-opacity="0"/></linearGradient><radialGradient id="c" cx="450.908936" cy="189.579361" gradientTransform="matrix(.00000026 -.117199 -.210958 -.00000015 78.195972 95.392999)" gradientUnits="userSpaceOnUse" r="21.166656" xlink:href="#b"/><radialGradient id="d" cx="450.908936" cy="189.579361" gradientTransform="matrix(-.00000026 .117199 .210958 .00000015 -30.56642 -11.291218)" gradientUnits="userSpaceOnUse" r="21.166656" xlink:href="#b"/><radialGradient id="e" cx="450.908936" cy="189.579361" gradientTransform="matrix(-.00000026 -.117199 .210958 -.00000015 -30.56642 95.392999)" gradientUnits="userSpaceOnUse" r="21.166656" xlink:href="#b"/><radialGradient id="f" cx="450.908936" cy="189.579361" gradientTransform="matrix(.00000026 .117199 -.210958 .00000015 78.195969 -11.291219)" gradientUnits="userSpaceOnUse" r="21.166656" xlink:href="#b"/><linearGradient id="g" gradientUnits="userSpaceOnUse" x1="15.87652349995" x2="15.87652349995" y1="42.0509015" y2="4.3441580001"><stop offset="0" stop-color="#2979ff"/><stop offset="1" stop-color="#42a5f5"/></linearGradient><linearGradient id="h" gradientUnits="userSpaceOnUse" x1="23.814816" x2="23.81481751323" y1="42.05096580616" y2="4.34417266504"><stop offset="0" stop-color="#ffa726"/><stop offset="1" stop-color="#ffb74d"/></linearGradient><path d="m8.929688 41.902344h29.769531v2.207031h-29.769531zm0 0" fill="url(#a)"/><path d="m38.699219 42.050781h3.96875v-1.984375h-3.96875zm0 0" fill="url(#c)"/><path d="m8.929688 42.050781h-3.96875v1.984375h3.96875zm0 0" fill="url(#d)"/><path d="m8.929688 42.050781h-3.96875v-1.984375h3.96875zm0 0" fill="url(#e)"/><path d="m38.699219 42.050781h3.96875v1.984375h-3.96875zm0 0" fill="url(#f)"/><path d="m6.945312 4.34375h33.738282c1.097656 0 1.984375.890625 1.984375 1.984375v33.738281c0 1.097656-.886719 1.984375-1.984375 1.984375h-33.738282c-1.09375 0-1.984374-.886719-1.984374-1.984375v-33.738281c0-1.09375.890624-1.984375 1.984374-1.984375zm0 0" fill="url(#g)"/><path d="m20.0625 23.199219-14.882812 14.882812h-.21875v1.984375c0 1.097656.886718 1.984375 1.984374 1.984375h33.738282c1.097656 0 1.984375-.886719 1.984375-1.984375v-1.984375h-.214844l-14.886719-14.882812-2.347656 2.347656c-.777344.777344-2.03125.777344-2.808594 0zm0 0" fill-opacity=".078431"/><path d="m6.945312 4.488281c-1.097656 0-1.984374.882813-1.984374 1.984375v.246094c0-1.097656.886718-1.984375 1.984374-1.984375h33.738282c1.097656 0 1.984375.886719 1.984375 1.984375v-.246094c0-1.101562-.886719-1.984375-1.984375-1.984375zm0 0" fill="#e6e6e6" fill-opacity=".392157"/><path d="m6.945312 41.902344c-1.097656 0-1.984374-.882813-1.984374-1.984375v-.246094c0 1.097656.886718 1.984375 1.984374 1.984375h33.738282c1.097656 0 1.984375-.886719 1.984375-1.984375v.246094c0 1.101562-.886719 1.984375-1.984375 1.984375zm0 0" fill-opacity=".196078"/><path d="m6.945312 4.34375c-1.097656 0-1.984374.886719-1.984374 1.984375v1.984375h.21875l17.230468 17.234375c.777344.777344 2.03125.777344 2.808594 0l17.234375-17.234375h.214844v-1.984375c0-1.097656-.886719-1.984375-1.984375-1.984375zm0 0" fill="#fff" fill-opacity=".117647"/><path d="m74.076259-168.671091h359.840637c11.707216 0 21.164646 9.499093 21.164646 21.164646v359.840637c0 11.707215-9.45743 21.164645-21.164646 21.164645h-359.840637c-11.665552 0-21.164645-9.45743-21.164645-21.164645v-359.840637c0-11.665553 9.499093-21.164646 21.164645-21.164646zm0 0" fill="none" stroke="#212121" stroke-linecap="round" stroke-width="3" transform="matrix(.093759 0 0 .093759 0 20.158175)"/><path d="m18.355469 10.738281c-.746094 0-1.382813.535157-1.519531 1.269531l-1.492188 8.210938h6.5625l.367188-2.082031c.195312-1.09375 1.554687-1.71875 2.3125-1.0625l3.707031 5.117187c.296875.257813.421875.667969.335937 1.097656-.082031.40625-.34375.785157-.710937 1.027344l-5.511719 5.117188c-.988281.65625-2.128906.03125-1.9375-1.0625l.371094-2.085938h-6.597656l-1.375 7.550782c-.171876.949218.558593 1.820312 1.519531 1.820312h8.011719c6.875 0 12.457031-5.582031 12.457031-12.457031 0-6.878907-5.582031-12.460938-12.457031-12.460938zm0 0" fill="url(#h)"/><path d="m18.355469 10.738281c-.746094 0-1.382813.535157-1.519531 1.269531l-1.492188 8.210938h.121094l1.371094-7.546875c.136718-.734375.773437-1.269531 1.519531-1.269531h4.042969c6.761718 0 12.277343 5.40625 12.453124 12.128906.003907-.113281.003907-.222656.003907-.332031 0-6.878907-5.582031-12.460938-12.457031-12.460938zm10.257812 12.625c-.097656.378907-.351562.722657-.695312.953125l-5.511719 5.117188c-.808594.535156-1.714844.21875-1.914062-.511719l-.023438.113281c-.191406 1.09375.949219 1.71875 1.9375 1.0625l5.511719-5.117187c.367187-.242188.628906-.621094.710937-1.027344.042969-.203125.035156-.40625-.015625-.589844zm-14.371093 2.921875-1.375 7.550782c-.035157.210937-.03125.414062.011718.609374l1.363282-7.492187h6.476562l.121094-.667969zm0 0" fill="#fff" fill-opacity=".392157"/><path d="m23.84375 16.808594c-.6875 0-1.429688.542968-1.570312 1.328125l-.367188 2.082031h-6.382812l-.179688.996094h6.5625l.367188-2.085938c.195312-1.09375 1.554687-1.71875 2.3125-1.0625l3.707031 5.117188c.113281.097656.199219.21875.261719.351562.03125-.078125.058593-.160156.074218-.246094.085938-.429687-.039062-.839843-.335937-1.097656l-3.707031-5.117187c-.214844-.183594-.472657-.265625-.742188-.265625zm11.003906 6.886718c-.261718 6.644532-5.742187 11.960938-12.449218 11.960938h-8.011719c-.699219 0-1.277344-.460938-1.472657-1.082031l-.046874.253906c-.171876.949219.558593 1.820313 1.519531 1.820313h8.011719c6.875 0 12.457031-5.582032 12.457031-12.457032 0-.167968 0-.332031-.007813-.496094zm-14.183594 3.582032-.195312 1.09375c-.042969.25-.015625.472656.058594.664062l.3125-1.757812zm0 0" fill-opacity=".235294"/><path d="m739.929379 432.872071c-30.075869 0-55.742711 21.572745-61.253996 51.176218l-60.151739 330.992032h264.54168l14.801737-83.928998c7.873264-44.09028 62.671184-69.284726 93.219449-42.830558l149.434557 206.279525c11.967362 10.392709 17.006251 26.926564 13.542014 44.247745-3.306771 16.37639-13.856945 31.650523-28.658682 41.413371l-222.183518 206.279524c-39.838718 26.454168-85.818581 1.259723-78.102782-42.830557l14.959202-84.086463h-265.958868l-55.427781 304.380398c-6.928472 38.264064 22.517536 73.378823 61.253997 73.378823h322.961301c277.138904 0 502.156797-225.017894 502.156797-502.156797 0-277.296369-225.017893-502.314263-502.156797-502.314263zm0 0" fill="none" stroke="#212121" stroke-linecap="round" stroke-linejoin="round" stroke-width="11.338583" transform="scale(.0248071)"/></svg>

<?xml version="1.0" encoding="UTF-8"?>
<svg xmlns="http://www.w3.org/2000/svg" xmlns:xlink="http://www.w3.org/1999/xlink" width="48px" height="48px" viewBox="0 0 48 48" version="1.1">
<defs>
<linearGradient id="linear0" gradientUnits="userSpaceOnUse" x1="254" y1="233.5" x2="254" y2="254.666672" gradientTransform="matrix(0.093759,0,0,0.093759,-0.00000572259,20.158178)">
<stop offset="0" style="stop-color:rgb(0%,0%,0%);stop-opacity:0.27451;"/>
<stop offset="1" style="stop-color:rgb(0%,0%,0%);stop-opacity:0;"/>
</linearGradient>
<radialGradient id="radial0" gradientUnits="userSpaceOnUse" cx="450.908936" cy="189.579361" fx="450.908936" fy="189.579361" r="21.166656" gradientTransform="matrix(0.000000261256,-0.117199,-0.210958,-0.000000152308,78.195972,95.392999)">
<stop offset="0" style="stop-color:rgb(0%,0%,0%);stop-opacity:0.313726;"/>
<stop offset="0.222222" style="stop-color:rgb(0%,0%,0%);stop-opacity:0.27451;"/>
<stop offset="1" style="stop-color:rgb(0%,0%,0%);stop-opacity:0;"/>
</radialGradient>
<radialGradient id="radial1" gradientUnits="userSpaceOnUse" cx="450.908936" cy="189.579361" fx="450.908936" fy="189.579361" r="21.166656" gradientTransform="matrix(-0.000000261256,0.117199,0.210958,0.000000152308,-30.56642,-11.291218)">
<stop offset="0" style="stop-color:rgb(0%,0%,0%);stop-opacity:0.313726;"/>
<stop offset="0.222222" style="stop-color:rgb(0%,0%,0%);stop-opacity:0.27451;"/>
<stop offset="1" style="stop-color:rgb(0%,0%,0%);stop-opacity:0;"/>
</radialGradient>
<radialGradient id="radial2" gradientUnits="userSpaceOnUse" cx="450.908936" cy="189.579361" fx="450.908936" fy="189.579361" r="21.166656" gradientTransform="matrix(-0.000000261256,-0.117199,0.210958,-0.000000152308,-30.56642,95.392999)">
<stop offset="0" style="stop-color:rgb(0%,0%,0%);stop-opacity:0.313726;"/>
<stop offset="0.222222" style="stop-color:rgb(0%,0%,0%);stop-opacity:0.27451;"/>
<stop offset="1" style="stop-color:rgb(0%,0%,0%);stop-opacity:0;"/>
</radialGradient>
<radialGradient id="radial3" gradientUnits="userSpaceOnUse" cx="450.908936" cy="189.579361" fx="450.908936" fy="189.579361" r="21.166656" gradientTransform="matrix(0.000000261256,0.117199,-0.210958,0.000000152308,78.195969,-11.291219)">
<stop offset="0" style="stop-color:rgb(0%,0%,0%);stop-opacity:0.313726;"/>
<stop offset="0.222222" style="stop-color:rgb(0%,0%,0%);stop-opacity:0.27451;"/>
<stop offset="1" style="stop-color:rgb(0%,0%,0%);stop-opacity:0;"/>
</radialGradient>
<linearGradient id="linear1" gradientUnits="userSpaceOnUse" x1="169.333328" y1="233.5" x2="169.333328" y2="-168.666656" gradientTransform="matrix(0.093759,0,0,0.093759,0,20.158175)">
<stop offset="0" style="stop-color:rgb(16.078432%,47.450981%,100%);stop-opacity:1;"/>
<stop offset="1" style="stop-color:rgb(25.882354%,64.705884%,96.078432%);stop-opacity:1;"/>
</linearGradient>
<linearGradient id="linear2" gradientUnits="userSpaceOnUse" x1="960" y1="1695.118164" x2="960.000061" y2="175.118118" gradientTransform="matrix(0.0248071,0,0,0.0248071,0,0.00000000000000282)">
<stop offset="0" style="stop-color:rgb(100%,65.490198%,14.901961%);stop-opacity:1;"/>
<stop offset="1" style="stop-color:rgb(100%,71.764708%,30.19608%);stop-opacity:1;"/>
</linearGradient>
</defs>
<g id="surface1">
<path style=" stroke:none;fill-rule:nonzero;fill:url(#linear0);" d="M 8.929688 41.902344 L 38.699219 41.902344 L 38.699219 44.109375 L 8.929688 44.109375 Z M 8.929688 41.902344 "/>
<path style=" stroke:none;fill-rule:nonzero;fill:url(#radial0);" d="M 38.699219 42.050781 L 42.667969 42.050781 L 42.667969 40.066406 L 38.699219 40.066406 Z M 38.699219 42.050781 "/>
<path style=" stroke:none;fill-rule:nonzero;fill:url(#radial1);" d="M 8.929688 42.050781 L 4.960938 42.050781 L 4.960938 44.035156 L 8.929688 44.035156 Z M 8.929688 42.050781 "/>
<path style=" stroke:none;fill-rule:nonzero;fill:url(#radial2);" d="M 8.929688 42.050781 L 4.960938 42.050781 L 4.960938 40.066406 L 8.929688 40.066406 Z M 8.929688 42.050781 "/>
<path style=" stroke:none;fill-rule:nonzero;fill:url(#radial3);" d="M 38.699219 42.050781 L 42.667969 42.050781 L 42.667969 44.035156 L 38.699219 44.035156 Z M 38.699219 42.050781 "/>
<path style=" stroke:none;fill-rule:nonzero;fill:url(#linear1);" d="M 6.945312 4.34375 L 40.683594 4.34375 C 41.78125 4.34375 42.667969 5.234375 42.667969 6.328125 L 42.667969 40.066406 C 42.667969 41.164062 41.78125 42.050781 40.683594 42.050781 L 6.945312 42.050781 C 5.851562 42.050781 4.960938 41.164062 4.960938 40.066406 L 4.960938 6.328125 C 4.960938 5.234375 5.851562 4.34375 6.945312 4.34375 Z M 6.945312 4.34375 "/>
<path style=" stroke:none;fill-rule:nonzero;fill:rgb(0%,0%,0%);fill-opacity:0.0784314;" d="M 20.0625 23.199219 L 5.179688 38.082031 L 4.960938 38.082031 L 4.960938 40.066406 C 4.960938 41.164062 5.847656 42.050781 6.945312 42.050781 L 40.683594 42.050781 C 41.78125 42.050781 42.667969 41.164062 42.667969 40.066406 L 42.667969 38.082031 L 42.453125 38.082031 L 27.566406 23.199219 L 25.21875 25.546875 C 24.441406 26.324219 23.1875 26.324219 22.410156 25.546875 Z M 20.0625 23.199219 "/>
<path style=" stroke:none;fill-rule:nonzero;fill:rgb(90.196079%,90.196079%,90.196079%);fill-opacity:0.392157;" d="M 6.945312 4.488281 C 5.847656 4.488281 4.960938 5.371094 4.960938 6.472656 L 4.960938 6.71875 C 4.960938 5.621094 5.847656 4.734375 6.945312 4.734375 L 40.683594 4.734375 C 41.78125 4.734375 42.667969 5.621094 42.667969 6.71875 L 42.667969 6.472656 C 42.667969 5.371094 41.78125 4.488281 40.683594 4.488281 Z M 6.945312 4.488281 "/>
<path style=" stroke:none;fill-rule:nonzero;fill:rgb(0%,0%,0%);fill-opacity:0.196078;" d="M 6.945312 41.902344 C 5.847656 41.902344 4.960938 41.019531 4.960938 39.917969 L 4.960938 39.671875 C 4.960938 40.769531 5.847656 41.65625 6.945312 41.65625 L 40.683594 41.65625 C 41.78125 41.65625 42.667969 40.769531 42.667969 39.671875 L 42.667969 39.917969 C 42.667969 41.019531 41.78125 41.902344 40.683594 41.902344 Z M 6.945312 41.902344 "/>
<path style=" stroke:none;fill-rule:nonzero;fill:rgb(100%,100%,100%);fill-opacity:0.117647;" d="M 6.945312 4.34375 C 5.847656 4.34375 4.960938 5.230469 4.960938 6.328125 L 4.960938 8.3125 L 5.179688 8.3125 L 22.410156 25.546875 C 23.1875 26.324219 24.441406 26.324219 25.21875 25.546875 L 42.453125 8.3125 L 42.667969 8.3125 L 42.667969 6.328125 C 42.667969 5.230469 41.78125 4.34375 40.683594 4.34375 Z M 6.945312 4.34375 "/>
<path style="fill:none;stroke-width:3;stroke-linecap:round;stroke-linejoin:miter;stroke:rgb(12.941177%,12.941177%,12.941177%);stroke-opacity:1;stroke-miterlimit:4;" d="M 74.076259 -168.671091 L 433.916896 -168.671091 C 445.624112 -168.671091 455.081542 -159.171998 455.081542 -147.506445 L 455.081542 212.334192 C 455.081542 224.041407 445.624112 233.498837 433.916896 233.498837 L 74.076259 233.498837 C 62.410707 233.498837 52.911614 224.041407 52.911614 212.334192 L 52.911614 -147.506445 C 52.911614 -159.171998 62.410707 -168.671091 74.076259 -168.671091 Z M 74.076259 -168.671091 " transform="matrix(0.093759,0,0,0.093759,0,20.158175)"/>
<path style=" stroke:none;fill-rule:nonzero;fill:url(#linear2);" d="M 18.355469 10.738281 C 17.609375 10.738281 16.972656 11.273438 16.835938 12.007812 L 15.34375 20.21875 L 21.90625 20.21875 L 22.273438 18.136719 C 22.46875 17.042969 23.828125 16.417969 24.585938 17.074219 L 28.292969 22.191406 C 28.589844 22.449219 28.714844 22.859375 28.628906 23.289062 C 28.546875 23.695312 28.285156 24.074219 27.917969 24.316406 L 22.40625 29.433594 C 21.417969 30.089844 20.277344 29.464844 20.46875 28.371094 L 20.839844 26.285156 L 14.242188 26.285156 L 12.867188 33.835938 C 12.695312 34.785156 13.425781 35.65625 14.386719 35.65625 L 22.398438 35.65625 C 29.273438 35.65625 34.855469 30.074219 34.855469 23.199219 C 34.855469 16.320312 29.273438 10.738281 22.398438 10.738281 Z M 18.355469 10.738281 "/>
<path style=" stroke:none;fill-rule:nonzero;fill:rgb(100%,100%,100%);fill-opacity:0.392157;" d="M 18.355469 10.738281 C 17.609375 10.738281 16.972656 11.273438 16.835938 12.007812 L 15.34375 20.21875 L 15.464844 20.21875 L 16.835938 12.671875 C 16.972656 11.9375 17.609375 11.402344 18.355469 11.402344 L 22.398438 11.402344 C 29.160156 11.402344 34.675781 16.808594 34.851562 23.53125 C 34.855469 23.417969 34.855469 23.308594 34.855469 23.199219 C 34.855469 16.320312 29.273438 10.738281 22.398438 10.738281 Z M 28.613281 23.363281 C 28.515625 23.742188 28.261719 24.085938 27.917969 24.316406 L 22.40625 29.433594 C 21.597656 29.96875 20.691406 29.652344 20.492188 28.921875 L 20.46875 29.035156 C 20.277344 30.128906 21.417969 30.753906 22.40625 30.097656 L 27.917969 24.980469 C 28.285156 24.738281 28.546875 24.359375 28.628906 23.953125 C 28.671875 23.75 28.664062 23.546875 28.613281 23.363281 Z M 14.242188 26.285156 L 12.867188 33.835938 C 12.832031 34.046875 12.835938 34.25 12.878906 34.445312 L 14.242188 26.953125 L 20.71875 26.953125 L 20.839844 26.285156 Z M 14.242188 26.285156 "/>
<path style=" stroke:none;fill-rule:nonzero;fill:rgb(0%,0%,0%);fill-opacity:0.235294;" d="M 23.84375 16.808594 C 23.15625 16.808594 22.414062 17.351562 22.273438 18.136719 L 21.90625 20.21875 L 15.523438 20.21875 L 15.34375 21.214844 L 21.90625 21.214844 L 22.273438 19.128906 C 22.46875 18.035156 23.828125 17.410156 24.585938 18.066406 L 28.292969 23.183594 C 28.40625 23.28125 28.492188 23.402344 28.554688 23.535156 C 28.585938 23.457031 28.613281 23.375 28.628906 23.289062 C 28.714844 22.859375 28.589844 22.449219 28.292969 22.191406 L 24.585938 17.074219 C 24.371094 16.890625 24.113281 16.808594 23.84375 16.808594 Z M 34.847656 23.695312 C 34.585938 30.339844 29.105469 35.65625 22.398438 35.65625 L 14.386719 35.65625 C 13.6875 35.65625 13.109375 35.195312 12.914062 34.574219 L 12.867188 34.828125 C 12.695312 35.777344 13.425781 36.648438 14.386719 36.648438 L 22.398438 36.648438 C 29.273438 36.648438 34.855469 31.066406 34.855469 24.191406 C 34.855469 24.023438 34.855469 23.859375 34.847656 23.695312 Z M 20.664062 27.277344 L 20.46875 28.371094 C 20.425781 28.621094 20.453125 28.84375 20.527344 29.035156 L 20.839844 27.277344 Z M 20.664062 27.277344 "/>
<path style="fill:none;stroke-width:11.338583;stroke-linecap:round;stroke-linejoin:round;stroke:rgb(12.941177%,12.941177%,12.941177%);stroke-opacity:1;stroke-miterlimit:4;" d="M 739.929379 432.872071 C 709.85351 432.872071 684.186668 454.444816 678.675383 484.048289 L 618.523644 815.040321 L 883.065324 815.040321 L 897.867061 731.111323 C 905.740325 687.021043 960.538245 661.826597 991.08651 688.280765 L 1140.521067 894.56029 C 1152.488429 904.952999 1157.527318 921.486854 1154.063081 938.808035 C 1150.75631 955.184425 1140.206136 970.458558 1125.404399 980.221406 L 903.220881 1186.50093 C 863.382163 1212.955098 817.4023 1187.760653 825.118099 1143.670373 L 840.077301 1059.58391 L 574.118433 1059.58391 L 518.690652 1363.964308 C 511.76218 1402.228372 541.208188 1437.343131 579.944649 1437.343131 L 902.90595 1437.343131 C 1180.044854 1437.343131 1405.062747 1212.325237 1405.062747 935.186334 C 1405.062747 657.889965 1180.044854 432.872071 902.90595 432.872071 Z M 739.929379 432.872071 " transform="matrix(0.0248071,0,0,0.0248071,0,0)"/>
</g>
</svg>
